X:1
T:Title
%%score { ( 1 3 ) | ( 2 4 ) }
L:1/8
M:6/8
K:D
V:1 treble nm="Grand Piano"
V:3 treble 
V:2 bass 
V:4 bass 
V:1
 z3 z2[Q:1/4=78] D | F>FF A2 A | B>BB D2 D/E/ | FAG F2 E | F6[K:bass][K:treble] | .d3 .c3 | %6
 .B3 .A3 | [^G,E]F^G Gdc |[M:7/8] A-A-A- A3 z |[M:3/4] GG GG FE | z2 z .A3 | B2 z2 z2 | c4- cA/A/ | %13
 d2 z2 z2 | A2 B .[G,B,E]3 | [A,DFA]2 z [A,DF]2[K:bass] [G,CE] | [F,A,D]4- [F,A,D][K:treble][DFA] | %17
 [Fd]2 [Fd]/[Fd]/ c2 F/F/ | B2 B [FA]2 [FA] | [GB]2 [AB]/[AB]/ [^Ge]2 [Gd] | c6 | %21
 [Fd]2 [Fd] D2 D/D/ | B2 B E2 F/G/ | A2 A[CEA] [DFA][EGA] |[M:5/8] [DFA]-[DFA]- [DFA]3 |] %25
V:2
 z6 | [D,,D,]3 z3 | [B,,,B,,F,B,D]3 z3 | z G,A, CA,G, | [D,,D,]3 DA,F, | z2 [DF] z2 C | %6
 z2 [DG] z2 D | z A,D EDE |[M:7/8] z CD C3 z |[M:3/4] z [A,CE] .[A,CE]2 [G,A,E][G,A,] | %10
 z[K:treble] [A,D] .[A,DF]2[K:bass] [A,D][K:treble][A,DF] | z [B,D] .[B,DG]2 [CEG][DE^G] | %12
 z C[K:treble] EA GE | z2 D[K:treble]F D[K:bass]A, | [D,F,A,D]2 z G,,2[K:treble] F/G/ | %15
 A,,2[K:treble] B/G/[K:bass] A,,2 A,, | D,4- D,D, | %17
 [D,A,]2 [D,A,]/[D,A,]/ [F,^A,F]2 [F,A,E]/[F,A,E]/ | [G,D]2 [G,DG][K:bass] [D,D]2 [D,D] | %19
 [G,D]2 [F,^D]/[F,D]/ [E,E]2 [E,E] | A4 z2 | [D,A,]2 [D,A,] [D,F,]2 [D,F,]/[D,F,]/ | %22
 [G,D]2 [G,D] [^G,B,D]2 [A,D]/[A,E]/ | [A,DF]2 [A,DF][K:bass]A,, A,,A,, |[M:5/8] D,-D,- D,3 |] %25
V:3
 x6 | [F,A,D]3 z3 | x6 | x6 | z[K:bass] F,A, z2[K:treble] A/A/ | z A,d z ^A,F/F/ | z B,B z A,F/F/ | %7
 x6 |[M:7/8] z EF G3 E/F/ |[M:3/4] x6 | FF .G2 FA/A/ | z G BB ^AB | x6 | z A, d A2 F/G/ | x6 | %15
 x5[K:bass] x | x5[K:treble] x | x6 | x6 | x6 | z2 z G2 A/A/ | x6 | x6 | x6 |[M:5/8] x5 |] %25
V:4
 x6 | x6 | x6 | A,,3 z3 | x6 | [D,,D,]3 [F,,F,]3 | [G,,G,]3 [D,,D,]3 | [E,,E,]3 z3 | %8
[M:7/8] A,,-A,,-A,,- A,,3 z |[M:3/4] A,,3 C,3 | D,3[K:treble][K:bass] D,3[K:treble] | G,3 E,3 | %12
 A,,4[K:treble] z2 | [D,,D,]4[K:treble] z2[K:bass] | x5[K:treble] x | x2[K:treble] x[K:bass] x3 | %16
 x6 | x6 | x3[K:bass] x3 | x6 | [A,E]4- [A,E][A,CG]/[A,CG]/ | x6 | x6 | x3[K:bass] x3 | %24
[M:5/8] x5 |] %25

